!!!OTL: 783. Abschiedslied.
!!!ARE: Europa, Mitteleuropa, Deutschland, Hessen, Schwalbach, Hennethal
!!!SCT: E0783
!!!TXL: @@DE
!!!YEM: Copyright 1995, estate of Helmut Schaffrath.
**kern	**text
*ICvox	*
*M3/4	*
*k[f#c#]	*
*D:	*
!LO:TX:a:t=Langsam.	!
{8d	Jch
16f#L	muß
16aJ	.
=1	=1
(4a	rei-
8g)	.
8f#	-ſen
8g	frem-
8b	-de
=2	=2
4b	Stra-
4a}	-ßen,
{8d	muß
16f#L	mein'n
16aJ	.
=3	=3
(4a	Schatʒ
8g)	.
8f#	ein'm
8g	An-
8b	-dern
=4	=4
4b	laſ-
4a}	-ſen.
{8a	Schei-
16b	-den,
16cc#	ach
=5	=5
4.dd	Schei-
8ee	-den
8dd	thut
8b	ſo
=6	=6
4a	weh,
8r}	.
{8dd	wenn
8b	ʒwei
16f#L	Feins-
16eJ	.
=7	=7
4f#	-lieb-
8a	-chen
16a	aus-
16a	-ein-
8b	-an-
16f#L	-der
16eJ	.
=8	=8
4f#	gehn.
4r}	.
==	==
!!!AGN: Abschieds - Lied, Liebe
!!!ONB: ESAC (Essen Associative Code) Database: ERK2
!!!AMT: simple triple
!!!AIN: vox
!!!EED: Helmut Schaffrath
!!!EEV: 1.0
!!!GTL: Abschieds- und Wanderlieder
!!!URL-scan: https://rosdok.uni-rostock.de/mcrviewer/recordIdentifier/rosdok_ppn745177662/iview2/phys_0589.iview2?x=111.3894283684831&y=2352.1700934260152&scale=0.7029437510502773&rotation=0&layout=singlePageLayout
!!!ENC: Anna Maria Matuszewska
!!!EEV: 2024/12/17
*-	*-
